X: 3
T: The Glass Of Beer
R: reel
M: 4/4
L: 1/8
K: Amin
cd|eA A2 eAgA|eA A2 d2 cd|eA A2 e3d|cege d2 cd|
eA A2 eAgA|eA A2 d2 cd|eA A2 e3d|cege d2 ed||
c3d e3d|cdec dcAG|c3d e3d|cege d2 ed|
c3d e3d|cdec dcAG|c3d e3d|cege d2 cd||


Tune 188	Setting 12836

